X:1
T:Title
%%score 1 { 2 | 3 }
L:1/8
Q:1/4=83
M:4/4
K:D
V:1 treble nm="Grand Piano, Soprano"
V:2 bass nm="Choir Pad, Olsztyn, George Root, 1870"
V:3 bass 
V:1
 D[DF]- [DF]/[DF]/[DF] [CE][DF] [FA]2 | [FA][GB]- [GB]/[GB]/[GB] [FA] [GB]3 | %2
w: By~George~Frederick~Root,~1870 * * * * * * *||
 [Gc][Fd]- [Fd]/[Ac]/[GB] [FA][GB][Ac][Bd] | [GB][FA][DF]E [B,D] [CE]3 | %4
w: ||
 [CE][DF]- [DF]/[DF]/[DF] [CE][DF] [FA]2 | [FA][GB]- [GB]/[GB]/[GB] [FA] [GB]3 | %6
w: ||
 [Gc][Fd]- [Fd]/[Ac]/[GB] [FA][GB][Ac][Bd] | [GB][FA][DF][CE]- [CE]/[CF]/ D3- | D4 z4 |] %9
w: |||
V:2
 F,A,- A,/A,/A, A,A,[K:treble] D2 | DD- D/D/D D D3 | A,A,- A,/D/D[K:treble] D D2 D | %3
 DD[K:bass]A,^G, G, A,3 | A,A,- A,/A,/A, A,A,[K:treble] D2 | DD- D/D/D D D3 | %6
 A,A,- A,/D/D[K:treble] D D2 D | DD[K:bass]A,G,- G,/A,/ F,3- | F,4 z4 |] %9
V:3
 D,D,- D,/D,/D, A,,D, D,2 | D,G,- G,/G,/G, D, G,3 | E,D,- D,/D,/D, D, D,2 D, | D,D,D,B,, B,, A,,3 | %4
 A,,D,- D,/D,/D, A,,D, D,2 | D,G,- G,/G,/G, D, G,3 | E,D,- D,/D,/D, D, G,,2 G,, | %7
 G,,A,,A,,A,,- A,,/A,,/ D,3- | D,4 z4 |] %9

